X: 1
T:WEARIN' OF THE GREEN
M:C|
L:1/8
Q:80
C:TRAD.
S:MARCH
K:HP
{g}A3/2B/2|
{g}c{G}c{gcd}cB|
{gcd}ce{A}ec|  !
{gcd}cB{G}Bc|
{gfg}fd{ag}a3/2g/2|
{gfg}fe{gcd}c{e}A|  !
{gBd}B{e}A{GAG}A|
B/2{G}A3/2:| |
a3/2g/2|  !
{fg}fe{gef}ec|
{gef}e3/2{g}c/2{d}A3/2B/2|
{g}cB{gcd}cd|  !
{gcd}c2a3/2g/2|
{fg}fe{gef}ec|
{gef}e3/2{g}c/2{d}A3/2B/2|  !
{gcd}cB{G}Bc|
{gBd}B2|]
